static/assets/images/icons/filter-on.svg

<svg width="256" height="256" viewBox="0 0 256 256" fill="none" xmlns="http://www.w3.org/2000/svg">
<path d="M206.25 43H50.25C47.6641 43 45.1842 44.0342 43.3557 45.875C41.5272 47.7158 40.5 50.2125 40.5 52.8159V78.239C40.5 83.3727 42.5768 88.418 46.1843 92.0499L99 145.222V219.686C99.0019 221.358 99.4278 223.002 100.237 224.462C101.047 225.923 102.213 227.151 103.626 228.031C105.039 228.91 106.651 229.413 108.31 229.49C109.97 229.567 111.621 229.216 113.108 228.471L152.108 208.839C155.413 207.17 157.5 203.774 157.5 200.054V145.222L210.316 92.0499C213.923 88.418 216 83.3727 216 78.239V52.8159C216 50.2125 214.973 47.7158 213.144 45.875C211.316 44.0342 208.836 43 206.25 43ZM140.857 134.219C139.95 135.129 139.23 136.21 138.74 137.401C138.25 138.593 137.998 139.869 138 141.159V193.988L118.5 203.804V141.159C118.502 139.869 118.25 138.593 117.76 137.401C117.27 136.21 116.55 135.129 115.643 134.219L60 78.239V62.6317H196.51L196.529 78.1702L140.857 134.219Z" fill="black"/>
<path d="M140.857 134.219C139.95 135.129 139.23 136.21 138.74 137.401C138.25 138.593 137.998 139.869 138 141.159V193.988L118.5 203.804V141.159C118.502 139.869 118.25 138.593 117.76 137.401C117.27 136.21 116.55 135.129 115.643 134.219L60 78.239V62.6317H196.51L196.529 78.1702L140.857 134.219Z" fill="black"/>
</svg>

<svg xmlns="http://www.w3.org/2000/svg" viewBox="0 0 256 256"><path d="M206.25 43h-156a9.72 9.72 0 0 0-6.894 2.875 9.85 9.85 0 0 0-2.856 6.94V78.24c0 5.134 2.077 10.179 5.684 13.81L99 145.223v74.464a9.9 9.9 0 0 0 1.237 4.776 9.8 9.8 0 0 0 3.389 3.569 9.7 9.7 0 0 0 9.482.44l39-19.632a9.84 9.84 0 0 0 5.392-8.785v-54.832l52.816-53.172C213.923 88.419 216 83.374 216 78.24V52.816c0-2.604-1.027-5.1-2.856-6.941A9.72 9.72 0 0 0 206.25 43m-65.393 91.219a9.8 9.8 0 0 0-2.117 3.182 9.8 9.8 0 0 0-.74 3.758v52.829l-19.5 9.816v-62.645a9.8 9.8 0 0 0-.74-3.758 9.8 9.8 0 0 0-2.117-3.182L60 78.239V62.632h136.51l.019 15.538z"/></svg>
